X: 305750
M: 6/8
L: 1/8
K: C
(g/a/) |\
gfe edc | (A2c) (G2F) | E2c cBc | (ed)d d2 (g/a/) |\
gfe edc | (A2c) (G2F) | E2G c2d | ecc c2 H|]
g |\
^fga g2c' | e3 cBc | d2g G2B | c2d e2f |\
^fga g2c' | e3 cBc | d2g GBd | c3- "^D.C."c2 |]
E/F/ |\


